X:458
T:Polska efter Abraham Hagholm (79)
R:Polska
Z:Jonas Brunskog
O:Godegård, Östergötland
S:efter Abraham Hagholm
B:Svenska Låtar Östergötland
N:Sv. L. Ös. 79
M:3/4
L:1/8
K:C
|:g2 fe/f/ ga|ag gf fe/f/|g2 ec/e/ (ga/g/)|(f/e/).f/.g/ e2 (c/B/.c/.e/)|
g2 fe/f/ ga|ag gf fe/f/|g2 ec/e/ (ga/g/)|fa/f/ e4:|
|:{dB}cB Gc e2|dc (B/c/).d/.e/ f2|{g}fe ce g>f|df ec/e/ dB/d/|
{dB}cB Gc e2|dc (B/c/).d/.e/ f2|{g}fe ce gf|de c4:|
(:musicend:)

(:music:)
